svg/color/es.svg

<?xml version="1.0" encoding="UTF-8" ?>
<!DOCTYPE svg PUBLIC "-//W3C//DTD SVG 1.1//EN" "http://www.w3.org/Graphics/SVG/1.1/DTD/svg11.dtd">
<svg width="250pt" height="169pt" viewBox="0 0 250 169" version="1.1" xmlns="http://www.w3.org/2000/svg">
<g id="#fefefeff">
<path fill="#fefefe" opacity="1.00" d=" M 0.00 0.00 L 250.00 0.00 L 250.00 169.00 L 0.00 169.00 L 0.00 0.00 M 105.99 25.02 C 97.86 28.58 90.61 35.83 89.71 45.01 C 89.19 51.59 90.84 59.31 96.70 63.17 C 102.43 66.85 109.52 66.33 116.00 67.24 C 124.82 67.63 133.66 67.68 142.42 68.88 C 155.13 71.28 167.71 76.74 176.50 86.48 C 187.49 98.28 191.80 115.15 190.44 130.97 C 189.85 135.39 188.13 139.57 187.33 143.96 C 191.74 140.54 195.40 136.28 199.44 132.44 C 213.98 117.98 228.32 103.31 242.95 88.94 C 243.98 87.81 245.20 86.67 245.54 85.12 C 241.62 79.89 236.42 75.79 232.03 70.97 C 219.49 57.51 206.32 44.66 193.54 31.44 C 191.98 29.83 190.27 28.36 188.36 27.18 C 188.87 32.02 190.91 36.74 190.23 41.66 C 189.71 44.02 187.40 45.56 185.03 45.38 C 177.72 45.50 170.40 45.68 163.10 45.41 C 157.85 44.77 154.50 39.98 152.15 35.69 C 147.88 27.62 138.70 23.53 130.02 22.42 C 121.97 22.05 113.51 21.61 105.99 25.02 M 54.40 31.40 C 37.82 48.15 21.12 64.79 4.49 81.50 C 3.11 82.55 2.73 84.73 3.81 86.11 C 6.74 89.84 10.36 92.95 13.64 96.35 C 26.36 109.63 39.61 122.41 52.14 135.87 C 54.44 138.24 56.55 140.99 59.73 142.24 C 58.90 136.94 57.36 131.46 58.69 126.11 C 59.52 125.00 60.62 124.48 61.99 124.53 C 68.32 124.25 74.66 124.31 80.99 124.29 C 83.80 124.40 86.90 124.02 89.29 125.82 C 94.04 128.54 95.18 134.42 98.94 138.08 C 106.02 145.67 116.99 148.20 127.03 147.61 C 138.21 147.68 149.78 142.54 155.62 132.71 C 158.45 128.33 157.76 122.91 157.65 117.98 C 157.54 112.26 153.56 106.95 148.24 104.96 C 140.49 102.03 132.07 102.91 124.00 101.82 C 118.67 101.39 113.27 101.85 107.96 101.06 C 97.86 99.69 88.06 96.00 79.62 90.27 C 68.79 82.86 61.27 70.96 58.96 58.07 C 57.43 47.65 58.85 37.12 59.74 26.73 C 57.77 28.06 56.12 29.78 54.40 31.40 Z" />
</g>
<g id="#4d4d4dff">
<path fill="#4d4d4d" opacity="1.00" d=" M 105.99 25.02 C 113.51 21.61 121.97 22.05 130.02 22.42 C 138.70 23.53 147.88 27.62 152.15 35.69 C 154.50 39.98 157.85 44.77 163.10 45.41 C 170.40 45.68 177.72 45.50 185.03 45.38 C 187.40 45.56 189.71 44.02 190.23 41.66 C 190.91 36.74 188.87 32.02 188.36 27.18 C 190.27 28.36 191.98 29.83 193.54 31.44 C 206.32 44.66 219.49 57.51 232.03 70.97 C 236.42 75.79 241.62 79.89 245.54 85.12 C 245.20 86.67 243.98 87.81 242.95 88.94 C 228.32 103.31 213.98 117.98 199.44 132.44 C 195.40 136.28 191.74 140.54 187.33 143.96 C 188.13 139.57 189.85 135.39 190.44 130.97 C 191.80 115.15 187.49 98.28 176.50 86.48 C 167.71 76.74 155.13 71.28 142.42 68.88 C 133.66 67.68 124.82 67.63 116.00 67.24 C 109.52 66.33 102.43 66.85 96.70 63.17 C 90.84 59.31 89.19 51.59 89.71 45.01 C 90.61 35.83 97.86 28.58 105.99 25.02 Z" />
</g>
<g id="#991602ff">
<path fill="#991602" opacity="1.00" d=" M 54.40 31.40 C 56.12 29.78 57.77 28.06 59.74 26.73 C 58.85 37.12 57.43 47.65 58.96 58.07 C 61.27 70.96 68.79 82.86 79.62 90.27 C 88.06 96.00 97.86 99.69 107.96 101.06 C 113.27 101.85 118.67 101.39 124.00 101.82 C 132.07 102.91 140.49 102.03 148.24 104.96 C 153.56 106.95 157.54 112.26 157.65 117.98 C 157.76 122.91 158.45 128.33 155.62 132.71 C 149.78 142.54 138.21 147.68 127.03 147.61 C 116.99 148.20 106.02 145.67 98.94 138.08 C 95.18 134.42 94.04 128.54 89.29 125.82 C 86.90 124.02 83.80 124.40 80.99 124.29 C 74.66 124.31 68.32 124.25 61.99 124.53 C 60.62 124.48 59.52 125.00 58.69 126.11 C 57.36 131.46 58.90 136.94 59.73 142.24 C 56.55 140.99 54.44 138.24 52.14 135.87 C 39.61 122.41 26.36 109.63 13.64 96.35 C 10.36 92.95 6.74 89.84 3.81 86.11 C 2.73 84.73 3.11 82.55 4.49 81.50 C 21.12 64.79 37.82 48.15 54.40 31.40 Z" />
</g>
</svg>

<?xml version="1.0" encoding="utf-8"?>
<!-- Generator: Adobe Illustrator 26.0.3, SVG Export Plug-In . SVG Version: 6.00 Build 0)  -->
<svg version="1.1" id="Layer_1" xmlns="http://www.w3.org/2000/svg" xmlns:xlink="http://www.w3.org/1999/xlink" x="0px" y="0px"
	 viewBox="0 0 250 169" style="enable-background:new 0 0 250 169;" xml:space="preserve">
<style type="text/css">
	.st0{fill:#4D4D4D;}
	.st1{fill:#991602;}
</style>
<g id="_x23_4d4d4dff">
	<path class="st0" d="M106,25c7.5-3.4,16-3,24-2.6c8.7,1.1,17.9,5.2,22.1,13.3c2.4,4.3,5.7,9.1,11,9.7c7.3,0.3,14.6,0.1,21.9,0
		c2.4,0.2,4.7-1.4,5.2-3.7c0.7-4.9-1.4-9.6-1.9-14.5c1.9,1.2,3.6,2.6,5.2,4.3c12.8,13.2,26,26.1,38.5,39.5
		c4.4,4.8,9.6,8.9,13.5,14.2c-0.3,1.5-1.6,2.7-2.6,3.8c-14.6,14.4-29,29-43.5,43.5c-4,3.8-7.7,8.1-12.1,11.5c0.8-4.4,2.5-8.6,3.1-13
		c1.4-15.8-2.9-32.7-13.9-44.5c-8.8-9.7-21.4-15.2-34.1-17.6c-8.8-1.2-17.6-1.2-26.4-1.6c-6.5-0.9-13.6-0.4-19.3-4.1
		c-5.9-3.9-7.5-11.6-7-18.2C90.6,35.8,97.9,28.6,106,25z"/>
</g>
<g id="_x23_991602ff">
	<path class="st1" d="M54.4,31.4c1.7-1.6,3.4-3.3,5.3-4.7c-0.9,10.4-2.3,20.9-0.8,31.3c2.3,12.9,9.8,24.8,20.7,32.2
		c8.4,5.7,18.2,9.4,28.3,10.8c5.3,0.8,10.7,0.3,16,0.8c8.1,1.1,16.5,0.2,24.2,3.1c5.3,2,9.3,7.3,9.4,13c0.1,4.9,0.8,10.3-2,14.7
		c-5.8,9.8-17.4,15-28.6,14.9c-10,0.6-21-1.9-28.1-9.5c-3.8-3.7-4.9-9.5-9.7-12.3c-2.4-1.8-5.5-1.4-8.3-1.5c-6.3,0-12.7,0-19,0.2
		c-1.4,0-2.5,0.5-3.3,1.6c-1.3,5.4,0.2,10.8,1,16.1c-3.2-1.2-5.3-4-7.6-6.4c-12.5-13.5-25.8-26.2-38.5-39.5
		c-3.3-3.4-6.9-6.5-9.8-10.2c-1.1-1.4-0.7-3.6,0.7-4.6C21.1,64.8,37.8,48.2,54.4,31.4z"/>
</g>
</svg>
